static/images/pieces/xiangqi/wikim/black_cannon.svg

<?xml version="1.0" encoding="UTF-8" standalone="no"?>
<svg
   width="100"
   height="100"
   version="1.1"
   id="svg147"
   sodipodi:docname="black_cannon.svg"
   viewBox="-6 -6 112 112"
   inkscape:version="1.2.2 (b0a8486541, 2022-12-01)"
   xmlns:inkscape="http://www.inkscape.org/namespaces/inkscape"
   xmlns:sodipodi="http://sodipodi.sourceforge.net/DTD/sodipodi-0.dtd"
   xmlns="http://www.w3.org/2000/svg"
   xmlns:svg="http://www.w3.org/2000/svg"
   xmlns:rdf="http://www.w3.org/1999/02/22-rdf-syntax-ns#"
   xmlns:cc="http://creativecommons.org/ns#"
   xmlns:dc="http://purl.org/dc/elements/1.1/">
  <defs
     id="defs151" />
  <sodipodi:namedview
     id="namedview149"
     pagecolor="#ffffff"
     bordercolor="#666666"
     borderopacity="1.0"
     inkscape:showpageshadow="2"
     inkscape:pageopacity="0.0"
     inkscape:pagecheckerboard="0"
     inkscape:deskcolor="#d1d1d1"
     showgrid="false"
     inkscape:zoom="2.36"
     inkscape:cx="50.211864"
     inkscape:cy="50"
     inkscape:window-width="1920"
     inkscape:window-height="1022"
     inkscape:window-x="0"
     inkscape:window-y="0"
     inkscape:window-maximized="1"
     inkscape:current-layer="svg147" />
  <title
     id="title139">砲</title>
  <!-- 此字型為全字庫正楷體，中華民國國家發展委員會，CNS11643中文標準交換碼全字庫網站，https://www.cns11643.gov.tw/。 -->
  <circle
     r="48.5"
     cx="50"
     cy="50"
     stroke-width="3"
     stroke="#000000"
     fill="#ffddaa"
     id="circle141" />
  <circle
     r="43.5"
     cx="50"
     cy="50"
     stroke-width="3"
     stroke="#000000"
     fill="none"
     id="circle143" />
  <path
     fill="#000000"
     d="M 38.9,7.1 C 38.8,7.3 38.5,8.3 38.4,9.3 38.1,11.6 37,15 35.5,18 c -1.2,2.4 -5.2,8.6 -7.5,11.6 -1.2,1.5 -1.1,2.6 0.1,2.6 1.1,0 4.8,-2.9 7.5,-5.8 2.4,-2.6 2.4,-2.6 3.6,-2.2 0.9,0.3 1.6,0.2 3.9,-0.3 1.6,-0.4 4.7,-0.9 6.8,-1 5.1,-0.3 4.9,-0.6 4.4,6.2 -0.4,5.5 -0.8,7.4 -1.7,9.1 -0.6,1.2 -1.2,1.2 -3.1,0.2 -1.4,-0.7 -2.6,-0.7 -2.6,0.2 0,0.2 0.8,2.1 1.9,4.1 1.7,3.6 1.9,3.7 3.1,3.8 2.5,0.2 6.1,-3.7 6.8,-7.5 0.3,-1.1 0.7,-4.6 1,-7.7 0.4,-3.8 0.8,-6 1.2,-7.1 0.4,-0.8 0.7,-1.7 0.7,-2 0,-0.7 -2.7,-3 -4.4,-3.7 -1.2,-0.5 -1.7,-0.6 -2.4,-0.3 -1.4,0.5 -14.2,2.5 -14.6,2.2 -0.2,-0.1 -0.1,-0.5 0.3,-0.9 0.4,-0.4 1.3,-1.8 2,-3.1 0.8,-1.2 1.8,-2.8 2.4,-3.4 0.5,-0.7 0.9,-1.5 0.9,-1.9 0,-0.9 -1.7,-2.7 -3.5,-3.6 C 40.4,6.6 39.5,6.4 38.9,7.1 M 24.1,19.4 c -1.6,0.6 -8.9,2.1 -11.6,2.5 -1.7,0.2 -2.5,0.8 -2.1,1.7 0.2,0.7 1.9,1.6 3.1,1.6 0.5,0 1.2,0.2 1.6,0.4 0.6,0.3 0.6,0.4 0.1,2.1 -1.5,4.9 -6,11.8 -10.3,15.7 -2.8,2.5 -3.3,3.3 -2.3,3.7 1.4,0.5 6.4,-1.9 9,-4.3 1.2,-1.1 1.2,-1.1 1.7,3.7 0.4,4.1 1,5.4 2.5,5.6 0.6,0.1 1.1,-0.2 1.5,-0.7 0.4,-0.6 1.1,-0.8 4.9,-1.2 5.3,-0.6 6.3,-1.1 4.9,-2.6 -0.4,-0.5 -0.3,-1 0.7,-4 0.6,-2 1.6,-4.2 2.1,-5.1 L 31,37 29.8,36 c -0.6,-0.5 -2,-1.2 -3.1,-1.5 -1.9,-0.6 -2,-0.6 -3.6,0.1 -1.6,0.9 -4.6,1.8 -5.7,1.8 -0.4,0 -0.2,-0.6 1.1,-2.8 2.5,-4.2 2.8,-4.6 3.6,-5.6 0.7,-0.9 0.7,-1 0.2,-2 -0.8,-1.4 -0.8,-1.5 0.2,-1.5 1.5,0 8.7,-2 9,-2.5 0.6,-0.8 0.4,-1.3 -0.7,-2.1 -1.4,-0.9 -4.5,-1.2 -6.7,-0.5 m 17.2,10.3 c -1.7,0.8 -2.3,0.9 -5.7,0.9 -3.7,-0.1 -3.8,0 -4,0.8 -0.1,0.4 0,1.3 0.2,2 0.3,0.7 0.4,4.3 0.3,10.6 -0.1,9.2 -0.1,9.4 0.8,11.2 1.6,3.6 5.6,6 11.4,6.9 7.7,1.3 19.3,-0.8 22.5,-4.1 1.7,-1.8 1.8,-2.5 0.7,-5 -0.5,-1.1 -1.2,-3.3 -1.4,-4.9 -0.4,-2.9 -0.7,-3.7 -1.7,-3.6 -1.1,0 -1.4,0.6 -1.9,3.6 -0.7,4 -1.1,4.9 -2.5,6.1 -2.1,1.9 -4.4,2.3 -11.7,2.3 -6.2,0 -6.5,0 -8.2,-0.9 -1,-0.4 -2.1,-1.3 -2.5,-2 -1,-1.4 -1.4,-5 -1,-7.5 l 0.3,-1.8 4.3,-0.4 c 3.3,-0.2 4.4,-0.5 4.9,-0.9 0.5,-0.6 0.5,-0.7 0,-1.3 -0.5,-0.5 -0.6,-0.9 -0.3,-1.3 0.2,-0.4 0.7,-1.7 1.1,-3 0.4,-1.2 1.2,-2.8 1.7,-3.5 1.9,-2.4 1.8,-2.6 -1.5,-4.2 -2.6,-1.2 -3.3,-1.2 -5.8,0 m 0.1,7.6 -0.6,2.8 -1.9,0.3 c -1,0.2 -1.9,0.2 -2,0.1 -0.3,-0.3 0.6,-5.6 0.9,-6 0.2,-0.2 1.1,-0.5 2.2,-0.7 2.2,-0.5 2.3,-0.5 1.4,3.5 m -18.3,2 c 0,0.4 -0.3,2.1 -0.6,3.8 -0.6,3.4 -0.7,3.4 -3.5,3.4 H 17.5 L 17.4,43 17.3,39.5 18.5,39.3 c 0.7,-0.1 1.9,-0.3 2.7,-0.4 0.7,-0.2 1.5,-0.3 1.6,-0.4 0.2,0 0.3,0.3 0.3,0.8"
     id="path145"
     transform="translate(15,14)" />
  <metadata
     id="metadata11253">
    <rdf:RDF>
      <cc:Work
         rdf:about="">
        <dc:title>砲</dc:title>
      </cc:Work>
    </rdf:RDF>
  </metadata>
</svg>

<?xml version="1.0" encoding="UTF-8"?>
<svg width="100" height="100"
	xmlns="http://www.w3.org/2000/svg">
	<title>砲</title>
	<!-- 此字型為全字庫正楷體，中華民國國家發展委員會，CNS11643中文標準交換碼全字庫網站，https://www.cns11643.gov.tw/。 -->
	<circle r="48.5" cx="50" cy="50" stroke-width="3" stroke="#000" fill="#fda"/>
	<circle r="43.5" cx="50" cy="50" stroke-width="3" stroke="#000" fill="none"/>
	<path transform="translate(15,14)" fill="#000" d="M38.9 7.1 C38.8 7.3,38.5 8.3,38.4 9.3 C38.1 11.6,37.0 15.0,35.5 18.0 C34.3 20.4,30.3 26.6,28.0 29.6 C26.8 31.1,26.9 32.2,28.1 32.2 C29.2 32.2,32.9 29.3,35.6 26.4 C38.0 23.8,38.0 23.8,39.2 24.2 C40.1 24.5,40.8 24.4,43.1 23.9 C44.7 23.5,47.8 23.0,49.9 22.9 C55.0 22.6,54.8 22.3,54.3 29.1 C53.9 34.6,53.5 36.5,52.6 38.2 C52.0 39.4,51.4 39.4,49.5 38.4 C48.1 37.7,46.9 37.7,46.9 38.6 C46.9 38.8,47.7 40.7,48.8 42.7 C50.5 46.3,50.7 46.4,51.9 46.5 C54.4 46.7,58.0 42.8,58.7 39.0 C59.0 37.9,59.4 34.4,59.7 31.3 C60.1 27.5,60.5 25.3,60.9 24.2 C61.3 23.4,61.6 22.5,61.6 22.2 C61.6 21.5,58.9 19.2,57.2 18.5 C56.0 18.0,55.5 17.9,54.8 18.2 C53.4 18.7,40.6 20.7,40.2 20.4 C40.0 20.3,40.1 19.9,40.5 19.5 C40.9 19.1,41.8 17.7,42.5 16.4 C43.3 15.2,44.3 13.6,44.9 13.0 C45.4 12.3,45.8 11.5,45.8 11.1 C45.8 10.2,44.1 8.4,42.3 7.5 C40.4 6.6,39.5 6.4,38.9 7.1 M24.1 19.4 C22.5 20.0,15.2 21.5,12.5 21.9 C10.8 22.1,10.0 22.7,10.4 23.6 C10.6 24.3,12.3 25.2,13.5 25.2 C14.0 25.2,14.7 25.4,15.1 25.6 C15.7 25.9,15.7 26.0,15.2 27.7 C13.7 32.6,9.2 39.5,4.9 43.4 C2.1 45.9,1.6 46.7,2.6 47.1 C4.0 47.6,9.0 45.2,11.6 42.8 C12.8 41.7,12.8 41.7,13.3 46.5 C13.7 50.6,14.3 51.9,15.8 52.1 C16.4 52.2,16.9 51.9,17.3 51.4 C17.7 50.8,18.4 50.6,22.2 50.2 C27.5 49.6,28.5 49.1,27.1 47.6 C26.7 47.1,26.8 46.6,27.8 43.6 C28.4 41.6,29.4 39.4,29.9 38.5 L31.0 37.0 29.8 36.0 C29.2 35.5,27.8 34.8,26.7 34.5 C24.8 33.9,24.7 33.9,23.1 34.6 C21.5 35.5,18.5 36.4,17.4 36.4 C17.0 36.4,17.2 35.8,18.5 33.6 C21.0 29.4,21.3 29.0,22.1 28.0 C22.8 27.1,22.8 27.0,22.3 26.0 C21.5 24.6,21.5 24.5,22.5 24.5 C24.0 24.5,31.2 22.5,31.5 22.0 C32.1 21.2,31.9 20.7,30.8 19.9 C29.4 19.0,26.3 18.7,24.1 19.4 M41.3 29.7 C39.6 30.5,39.0 30.6,35.6 30.6 C31.9 30.5,31.8 30.6,31.6 31.4 C31.5 31.8,31.6 32.7,31.8 33.4 C32.1 34.1,32.2 37.7,32.1 44.0 C32.0 53.2,32.0 53.4,32.9 55.2 C34.5 58.8,38.5 61.2,44.3 62.1 C52.0 63.4,63.6 61.3,66.8 58.0 C68.5 56.2,68.6 55.5,67.5 53.0 C67.0 51.9,66.3 49.7,66.1 48.1 C65.7 45.2,65.4 44.4,64.4 44.5 C63.3 44.5,63.0 45.1,62.5 48.1 C61.8 52.1,61.4 53.0,60.0 54.2 C57.9 56.1,55.6 56.5,48.3 56.5 C42.1 56.5,41.8 56.5,40.1 55.6 C39.1 55.2,38.0 54.3,37.6 53.6 C36.6 52.2,36.2 48.6,36.6 46.1 L36.9 44.3 41.2 43.9 C44.5 43.7,45.6 43.4,46.1 43.0 C46.6 42.4,46.6 42.3,46.1 41.7 C45.6 41.2,45.5 40.8,45.8 40.4 C46.0 40.0,46.5 38.7,46.9 37.4 C47.3 36.2,48.1 34.6,48.6 33.9 C50.5 31.5,50.4 31.3,47.1 29.7 C44.5 28.5,43.8 28.5,41.3 29.7 M41.4 37.3 L40.8 40.1 38.9 40.4 C37.9 40.6,37.0 40.6,36.9 40.5 C36.6 40.2,37.5 34.9,37.8 34.5 C38.0 34.3,38.9 34.0,40.0 33.8 C42.2 33.3,42.3 33.3,41.4 37.3 M23.1 39.3 C23.1 39.7,22.8 41.4,22.5 43.1 C21.9 46.5,21.8 46.5,19.0 46.5 L17.5 46.5 17.4 43.0 L17.3 39.5 18.5 39.3 C19.2 39.2,20.4 39.0,21.2 38.9 C21.9 38.7,22.7 38.6,22.8 38.5 C23.0 38.5,23.1 38.8,23.1 39.3 "/>
</svg>
